svgs/sharp-regular/chart-mixed-up-circle-currency.svg

<svg xmlns="http://www.w3.org/2000/svg" viewBox="0 0 576 512"><!--! Font Awesome Pro 6.6.0 by @fontawesome - https://fontawesome.com License - https://fontawesome.com/license (Commercial License) Copyright 2024 Fonticons, Inc. --><path d="M384 0l24 0L520 0l24 0 0 24 0 112 0 24-48 0 0-24 0-54.1-1 .8-160 128-15.1 12.1-15-12.2L191.3 118.3l-137 101L34.9 233.6 6.4 194.9l19.3-14.2 152-112 15-11 14.4 11.7 113 91.8L461.6 48 408 48l-24 0 0-48zM200 264l-16 0 0 176 16 0 0-176zm-16-40l16 0 40 0 0 40 0 176 0 40-40 0-16 0-40 0 0-40 0-176 0-40 40 0zM72 360l-16 0 0 80 16 0 0-80zM56 320l16 0 40 0 0 40 0 80 0 40-40 0-16 0-40 0 0-40 0-80 0-40 40 0zm232 48a144 144 0 1 1 288 0 144 144 0 1 1 -288 0zm118.6-25.4a35.9 35.9 0 1 1 50.7 50.7 35.9 35.9 0 1 1 -50.7-50.7zM467.3 426l25.3 25.3 22.6-22.6L490 403.3c13.2-21.6 13.2-49.1 0-70.7l25.3-25.3-22.6-22.6L467.3 310c-21.6-13.2-49.1-13.2-70.7 0l-25.3-25.3-22.6 22.6L374 332.7c-13.2 21.6-13.2 49.1 0 70.7l-25.3 25.3 22.6 22.6L396.7 426c21.6 13.2 49.1 13.2 70.7 0z"/></svg>

<svg xmlns="http://www.w3.org/2000/svg" viewBox="0 0 576 512"><!--! Font Awesome Pro 6.5.2 by @fontawesome - https://fontawesome.com License - https://fontawesome.com/license (Commercial License) Copyright 2024 Fonticons, Inc. --><path d="M384 0h24H520h24V24 136v24H496V136 81.9l-1 .8-160 128-15.1 12.1-15-12.2L191.3 118.3l-137 101L34.9 233.6 6.4 194.9l19.3-14.2 152-112 15-11 14.4 11.7 113 91.8L461.6 48H408 384V0zM200 264H184V440h16V264zm-16-40h16 40v40V440v40H200 184 144V440 264 224h40zM72 360H56v80H72V360zM56 320H72h40v40 80 40H72 56 16V440 360 320H56zm232 48a144 144 0 1 1 288 0 144 144 0 1 1 -288 0zm118.6-25.4a35.9 35.9 0 1 1 50.7 50.7 35.9 35.9 0 1 1 -50.7-50.7zM467.3 426l25.3 25.3 22.6-22.6L490 403.3c13.2-21.6 13.2-49.1 0-70.7l25.3-25.3-22.6-22.6L467.3 310c-21.6-13.2-49.1-13.2-70.7 0l-25.3-25.3-22.6 22.6L374 332.7c-13.2 21.6-13.2 49.1 0 70.7l-25.3 25.3 22.6 22.6L396.7 426c21.6 13.2 49.1 13.2 70.7 0z"/></svg>
